/* XPM */
static char *result[] = {
/* columns rows colors chars-per-pixel */
"48 48 79 1 ",
"  c #4C4C4C",
". c gray30",
"X c #4E4E4E",
"o c #505050",
"O c #515151",
"+ c gray32",
"@ c #535353",
"# c gray33",
"$ c #555555",
"% c #565656",
"& c #585858",
"* c gray35",
"= c #5A5A5A",
"- c #5B5B5B",
"; c gray36",
": c #5D5D5D",
"> c gray37",
", c #5F5F5F",
"< c gray38",
"1 c #626262",
"2 c gray39",
"3 c #646464",
"4 c #656565",
"5 c gray40",
"6 c #676767",
"7 c #686868",
"8 c DimGray",
"9 c #6C6C6C",
"0 c #6D6D6D",
"q c #6F6F6F",
"w c gray44",
"e c #717171",
"r c #727272",
"t c gray45",
"y c #747474",
"u c #777777",
"i c #797979",
"p c gray48",
"a c #7C7C7C",
"s c gray49",
"d c #7E7E7E",
"f c gray50",
"g c #818181",
"h c gray51",
"j c #838383",
"k c #848484",
"l c gray52",
"z c #868686",
"x c gray53",
"c c #888888",
"v c #898989",
"b c gray55",
"n c #8D8D8D",
"m c #8E8E8E",
"M c gray56",
"N c #909090",
"B c gray57",
"V c #929292",
"C c gray59",
"Z c #979797",
"A c gray60",
"S c #9A9A9A",
"D c #9B9B9B",
"F c gray61",
"G c gray62",
"H c #A0A0A0",
"J c #A2A2A2",
"K c gray64",
"L c #A5A5A5",
"P c gray65",
"I c #A7A7A7",
"U c #A9A9A9",
"Y c gray67",
"T c #ACACAC",
"R c gray68",
"E c #AEAEAE",
"W c #AFAFAF",
"Q c gray69",
"! c gray75",
/* pixels */
"sss333111QQQUUUfffwwwUUUJJJddd333+++===000PPPQQQ",
"sss333111QQQUUUfffwwwUUUJJJddd333+++===000PPPQQQ",
"sss333111QQQUUUfffwwwUUUJJJddd333+++===000PPPQQQ",
"vvv111UUUTTTxxx666UUUzzzQQQnnnmmm111222KKKffffff",
"vvv111UUUTTTxxx666UUUzzzQQQnnnmmm111222KKKffffff",
"vvv111UUUTTTxxx666UUUzzzQQQnnnmmm111222KKKffffff",
"111HHHpppffffff+++UUUVVVfffffflll%%%333111ZZZjjj",
"111HHHpppffffff+++UUUVVVfffffflll%%%333111ZZZjjj",
"111HHHpppffffff+++UUUVVVfffffflll%%%333111ZZZjjj",
"111111DDDssseee%%%fffgggMMMfff%%%&&&LLL111111@@@",
"111111DDDssseee%%%fffgggMMMfff%%%&&&LLL111111@@@",
"111111DDDssseee%%%fffgggMMMfff%%%&&&LLL111111@@@",
"AAAUUU%%%%%%%%%%%%777fffooo$$$UUUSSSffffff111qqq",
"AAAUUU%%%%%%%%%%%%777fffooo$$$UUUSSSffffff111qqq",
"AAAUUU%%%%%%%%%%%%777fffooo$$$UUUSSSffffff111qqq",
"WWWaaarrrEEEJJJRRR111%%%777!!!GGGfffMMMfffxxx777",
"WWWaaarrrEEEJJJRRR111%%%777!!!GGGfffMMMfffxxx777",
"WWWaaarrrEEEJJJRRR111%%%777!!!GGGfffMMMfffxxx777",
"uuuxxx>>>FFFhhhpppddd111111111fffnnncccBBB>>>===",
"uuuxxx>>>FFFhhhpppddd111111111fffnnncccBBB>>>===",
"uuuxxx>>>FFFhhhpppddd111111111fffnnncccBBB>>>===",
"iiiuuuyyy%%%...   %%%vvvIIIggg:::222rrr@@@:::666",
"iiiuuuyyy%%%...   %%%vvvIIIggg:::222rrr@@@:::666",
"iiiuuuyyy%%%...   %%%vvvIIIggg:::222rrr@@@:::666",
"111UUUUUUUUUggg:::TTTCCCUUUUUUNNN999DDDbbb444111",
"111UUUUUUUUUggg:::TTTCCCUUUUUUNNN999DDDbbb444111",
"111UUUUUUUUUggg:::TTTCCCUUUUUUNNN999DDDbbb444111",
"111fffxxxfffnnnooo555rrrUUUUUU999fffXXX111UUUUUU",
"111fffxxxfffnnnooo555rrrUUUUUU999fffXXX111UUUUUU",
"111fffxxxfffnnnooo555rrrUUUUUU999fffXXX111UUUUUU",
"+++---vvvfffooo111111888===ffffffooo<<<UUUUUUhhh",
"+++---vvvfffooo111111888===ffffffooo<<<UUUUUUhhh",
"+++---vvvfffooo111111888===ffffffooo<<<UUUUUUhhh",
"%%%<<<%%%===111JJJEEEhhhtttOOO111111WWWlllBBBfff",
"%%%<<<%%%===111JJJEEEhhhtttOOO111111WWWlllBBBfff",
"%%%<<<%%%===111JJJEEEhhhtttOOO111111WWWlllBBBfff",
"111GGGAAAZZZ***sssKKKMMMYYYUUU111111UUUkkkkkk===",
"111GGGAAAZZZ***sssKKKMMMYYYUUU111111UUUkkkkkk===",
"111GGGAAAZZZ***sssKKKMMMYYYUUU111111UUUkkkkkk===",
"JJJPPPmmmxxx777<<<ooo555yyykkksss111pppcccfff%%%",
"JJJPPPmmmxxx777<<<ooo555yyykkksss111pppcccfff%%%",
"JJJPPPmmmxxx777<<<ooo555yyykkksss111pppcccfff%%%",
"555bbbJJJfffyyyfffddd:::,,,;;;fff111999%%%%%%444",
"555bbbJJJfffyyyfffddd:::,,,;;;fff111999%%%%%%444",
"555bbbJJJfffyyyfffddd:::,,,;;;fff111999%%%%%%444",
"zzz###uuuxxxfff%%%666KKKffffffooo888KKKUUU111ggg",
"zzz###uuuxxxfff%%%666KKKffffffooo888KKKUUU111ggg",
"zzz###uuuxxxfff%%%666KKKffffffooo888KKKUUU111ggg"
};
