/* XPM */
static char *result[] = {
/* columns rows colors chars-per-pixel */
"48 48 5 1 ",
"  c #2F2F37",
". c #3E3D43",
"X c #515151",
"o c #646464",
"O c #797979",
/* pixels */
"OOOoooXXXXXXXXXXXX......oooooooooXXXXXX...XXXXXX",
"OOOoooXXXXXXXXXXXX......oooooooooXXXXXX...XXXXXX",
"OOOoooXXXXXXXXXXXX......oooooooooXXXXXX...XXXXXX",
"XXX...      ............XXXoooXXXXXX......XXX...",
"XXX...      ............XXXoooXXXXXX......XXX...",
"XXX...      ............XXXoooXXXXXX......XXX...",
"ooooooOOOooooooXXXXXX            ......   ......",
"ooooooOOOooooooXXXXXX            ......   ......",
"ooooooOOOooooooXXXXXX            ......   ......",
"...XXXoooXXXXXX.........XXXoooOOOOOOoooooooooXXX",
"...XXXoooXXXXXX.........XXXoooOOOOOOoooooooooXXX",
"...XXXoooXXXXXX.........XXXoooOOOOOOoooooooooXXX",
"   ...XXXXXX.........XXXoooooooooOOOooooooXXX...",
"   ...XXXXXX.........XXXoooooooooOOOooooooXXX...",
"   ...XXXXXX.........XXXoooooooooOOOooooooXXX...",
"OOOOOOXXXoooXXXXXX   XXXooooooXXXoooXXXXXXXXXooo",
"OOOOOOXXXoooXXXXXX   XXXooooooXXXoooXXXXXXXXXooo",
"OOOOOOXXXoooXXXXXX   XXXooooooXXXoooXXXXXXXXXooo",
"OOOooooooXXXXXX   ......XXXXXX......      ...XXX",
"OOOooooooXXXXXX   ......XXXXXX......      ...XXX",
"OOOooooooXXXXXX   ......XXXXXX......      ...XXX",
"oooXXX............oooOOOooooooXXX...   ...XXXXXX",
"oooXXX............oooOOOooooooXXX...   ...XXXXXX",
"oooXXX............oooOOOooooooXXX...   ...XXXXXX",
"XXX...XXX.........XXXOOOoooXXXoooXXX.........XXX",
"XXX...XXX.........XXXOOOoooXXXoooXXX.........XXX",
"XXX...XXX.........XXXOOOoooXXXoooXXX.........XXX",
"......      XXXXXXXXXoooXXXXXX...XXX...      ...",
"......      XXXXXXXXXoooXXXXXX...XXX...      ...",
"......      XXXXXXXXXoooXXXXXX...XXX...      ...",
"oooXXXoooXXX...XXXXXX......      ...XXXXXXOOOOOO",
"oooXXXoooXXX...XXXXXX......      ...XXXXXXOOOOOO",
"oooXXXoooXXX...XXXXXX......      ...XXXXXXOOOOOO",
"ooooooXXX...OOOOOOOOOOOOXXX...XXX......XXXOOOooo",
"ooooooXXX...OOOOOOOOOOOOXXX...XXX......XXXOOOooo",
"ooooooXXX...OOOOOOOOOOOOXXX...XXX......XXXOOOooo",
"oooXXX......OOOooooooooooooXXX.........XXXoooooo",
"oooXXX......OOOooooooooooooXXX.........XXXoooooo",
"oooXXX......OOOooooooooooooXXX.........XXXoooooo",
".........      oooooooooXXX...   ...      ......",
".........      oooooooooXXX...   ...      ......",
".........      oooooooooXXX...   ...      ......",
"OOOOOOooooooXXX......   ...OOOoooXXXXXXooooooOOO",
"OOOOOOooooooXXX......   ...OOOoooXXXXXXooooooOOO",
"OOOOOOooooooXXX......   ...OOOoooXXXXXXooooooOOO",
"OOOOOOoooXXXoooXXXXXX   XXXOOOooooooXXXXXXoooooo",
"OOOOOOoooXXXoooXXXXXX   XXXOOOooooooXXXXXXoooooo",
"OOOOOOoooXXXoooXXXXXX   XXXOOOooooooXXXXXXoooooo"
};
