/* XPM */
static char *result[] = {
/* columns rows colors chars-per-pixel */
"48 48 229 2 ",
"   c #0C3730",
".  c #0D3831",
"X  c #0D3E36",
"o  c #0E3E36",
"O  c #0E4038",
"+  c #0F443B",
"@  c #0F463D",
"#  c #1A403A",
"$  c #1B413B",
"%  c #1D433D",
"&  c #10493F",
"*  c #21433E",
"=  c #114A40",
"-  c #114F44",
";  c #1D4841",
":  c #125349",
">  c #13564A",
",  c #1F5A50",
"<  c #234640",
"1  c #264943",
"2  c #2A4A45",
"3  c #2E4B46",
"4  c #2E4B47",
"5  c #314E49",
"6  c #314F4A",
"7  c #344F4B",
"8  c #36544F",
"9  c #38534E",
"0  c #38534F",
"q  c #3A524E",
"w  c #3B534F",
"e  c #3E5955",
"r  c #3A5C57",
"t  c #3B5D58",
"y  c #23695D",
"u  c #197263",
"i  c #197465",
"p  c #1A7566",
"a  c #1A7868",
"s  c #1B7969",
"d  c #1B7B6B",
"f  c #1C7E6E",
"g  c #347368",
"h  c #405854",
"j  c #475F5B",
"k  c #525D5B",
"l  c #4E605D",
"z  c #58605E",
"x  c #4D6661",
"c  c #496964",
"v  c #4A6A65",
"b  c #506763",
"n  c #566462",
"m  c #596160",
"M  c #566966",
"N  c #5C6967",
"B  c #596B68",
"V  c #5D6E6B",
"C  c #5F6F6C",
"Z  c #587671",
"A  c #676767",
"S  c #616A68",
"D  c #676868",
"F  c #686868",
"G  c #6A6A6A",
"H  c #637572",
"J  c #647572",
"K  c #6A7271",
"L  c #6E7171",
"P  c #6F7A78",
"I  c #697F7C",
"U  c #707272",
"Y  c gray45",
"T  c #727776",
"R  c #747474",
"E  c gray46",
"W  c #737877",
"Q  c #737D7B",
"!  c #777F7E",
"~  c #797B7B",
"^  c #7B7C7C",
"/  c gray49",
"(  c #7E7E7E",
")  c gray50",
"_  c #1C8271",
"`  c #1D8372",
"'  c #1D8472",
"]  c #1D8574",
"[  c #1D8977",
"{  c #1E8A77",
"}  c #1E8A78",
"|  c #1E8C79",
" . c #1F927E",
".. c #20937F",
"X. c #24907E",
"o. c #209581",
"O. c #289786",
"+. c #219A86",
"@. c #219B86",
"#. c #229C87",
"$. c #229D88",
"%. c #239E88",
"&. c #239F89",
"*. c #259E89",
"=. c #289D88",
"-. c #25A08B",
";. c #26A08B",
":. c #2AA28E",
">. c #24A790",
",. c #26A891",
"<. c #25A992",
"1. c #33A995",
"2. c #26B39B",
"3. c #27B49C",
"4. c #28B89F",
"5. c #28BBA2",
"6. c #29BCA3",
"7. c #29BFA5",
"8. c #33B8A1",
"9. c #7F8584",
"0. c #768F8B",
"q. c #778F8B",
"w. c #42B39F",
"e. c #4FBFAB",
"r. c #2AC2A8",
"t. c #2AC3A8",
"y. c #2BC3A8",
"u. c #2BC6AB",
"i. c #2CC6AB",
"p. c #38C6AE",
"a. c #39C7AF",
"s. c #2CCDB1",
"d. c #2DCFB3",
"f. c #38CAB1",
"g. c #3ECBB3",
"h. c #39CDB4",
"j. c #3ED0B7",
"k. c #3DD1B8",
"l. c #3DD2B8",
"z. c #30DBBD",
"x. c #3CD9BE",
"c. c #5FC2B1",
"v. c #47D2BA",
"b. c #43D5BC",
"n. c #40D6BC",
"m. c #42D6BD",
"M. c #3DDFC3",
"N. c #3FDFC3",
"B. c #3BE3C6",
"V. c #44DEC3",
"C. c #44DFC4",
"Z. c #4AD9C0",
"A. c #5ED6C1",
"S. c #40E6CA",
"D. c #43E8CC",
"F. c #43E9CC",
"G. c #47EBCE",
"H. c #4AEDD1",
"J. c #50EBD0",
"K. c #5AEFD5",
"L. c #62E5CE",
"P. c #73EED9",
"I. c #6CF0DA",
"U. c #74F1DC",
"Y. c #7DF2DE",
"T. c #808080",
"R. c #808584",
"E. c #878A89",
"W. c #888A8A",
"Q. c #898B8B",
"!. c gray56",
"~. c #909090",
"^. c #95A7A4",
"/. c #A5B4B2",
"(. c #B3C0BE",
"). c #B7D2CD",
"_. c #85F3E0",
"`. c #8CF4E2",
"'. c #9CF5E6",
"]. c #A8EFE2",
"[. c #A2F6E7",
"{. c #A8F7E8",
"}. c #A8F7E9",
"|. c #ADF4E8",
" X c #ADF6E9",
".X c #AEF7EA",
"XX c #AFF7EA",
"oX c #B0F7EB",
"OX c #B1F7EB",
"+X c #B3F7EC",
"@X c #B4F7EC",
"#X c #BCF4EB",
"$X c #B3F8EB",
"%X c #B3F8EC",
"&X c #B4F8EC",
"*X c #B5F8EC",
"=X c #B7F8EC",
"-X c #B8F8ED",
";X c #B9F8ED",
":X c #BBF8EE",
">X c #BCF8EE",
",X c #BFF9EE",
"<X c #BFF9EF",
"1X c #C2CDCB",
"2X c #C9D9D6",
"3X c #D1DAD8",
"4X c #C4E7E1",
"5X c #C1F9EF",
"6X c #C2F9EF",
"7X c #C5F9F0",
"8X c #CAFAF1",
"9X c #CBFAF2",
"0X c #CDFAF2",
"qX c #D1FAF3",
"wX c #D3FBF4",
"eX c #D4FAF4",
"rX c #D6FBF4",
"tX c #D6FBF5",
"yX c #D7FBF5",
"uX c #DAFBF5",
"iX c #DDFBF6",
"pX c #DBFCF6",
"aX c #DFFCF7",
"sX c #E2FCF7",
"dX c #E8FDF9",
"fX c #EEFDFB",
"gX c #EFFDFB",
"hX c #F3FEFC",
"jX c white",
/* pixels */
") ) T.R R R R R R R R R R R Y ) N . . .                 . . . N ( R R R R R R R R R R R E ) ) ) ",
") ) T.R R R R R R R R R R R Y ) N . . .                 . . . N ( R R R R R R R R R R R E ) ) ) ",
") ) T.R R R R R R R R R R R Y ) N . . .                 . . . N ( R R R R R R R R R R R E ) ) ) ",
") ) ) ) ) / !.!.!.!.!.!.W.P P P H v v v c c c c c c c c v v v H P P Q !.F F F ) ) ) ) ) ( R R R ",
") ) ) ) ) / !.!.!.!.!.!.P . . . Z jXjXjXjXjXjXjXjXjXjXjXjXjXjXZ . . % !.F F F ) ) ) ) ) ( R R R ",
") ) ) ) ) / !.!.!.!.!.!.P . . . Z jXjXjXjXjXjXjXjXjXjXjXjXjXjXZ . . % !.F F F ) ) ) ) ) ( R R R ",
") ) / F F A R R R R R E k . . . Z jXjXjXjXjXjXjXjXjXjXjXjXjXjXZ . . $ ) ) ) ( !.!.!.) ) ) ) ) ) ",
") ) / F F A R R R w 3 4 x (.(.(.).,X,X,X,X,X,X,X,X,X,X0XaXaXaXc.,.,.=.6 6 6 l !.!.!.) ) ) ) ) ) ",
") ) / F F A R R R * . . c jXjXjXsX[.[.[.[.[.[.[.[.[.[.=XqXqXqXL.z.z.u.  . . 9 !.!.!.) ) ) ) ) ) ",
") ) / !.!.~.) ) ) < . . c jXjXjXsX[.[.[.[.[.[.[.[.[.[.=XqXqXqXL.z.z.u.  . . 7 R R R R R E ) ) ) ",
") ) / !.!.~.) ) ) < . . c jXjXjXsX[.[.[.[.[.[.[.[.[.[.=XqXqXqXL.z.z.u.  . . 7 R R R R R E ) ) ) ",
") ) / !.!.B 2 2 2 /.1X1X2XiXiXiX8X[.[.[.[.[.[.[.dXdXdXOXI.I.I.J.F.D.l.  . . 7 R R R R R E ) ) ) ",
") ) / !.!.j . .   3XjXjXhXqXqXqX6X[.[.[.[.[.[.[.jXjXjXoXH.H.H.H.H.H.m.  . . e !.!.!.!.!.!.F F F ",
") ) / !.!.j . .   3XjXjXhXqXqXqX6X[.[.[.[.[.[.[.jXjXjXoXH.H.H.H.H.H.m.  . . e !.!.!.!.!.!.F F F ",
") ) / !.!.j . .   3XjXjXgX,X<X<X5X7X7X7X*X@X&X&XfXfXfX>XY.Y.Y.K.H.H.V.i p p g C C C E.!.!.F F F ",
"R R R R R q . .   3XjXjXdX[.[.[.<XjXjXjXeXqXqXqXqXqXqXqXqXqXqXU.H.H.G.z.z.z.%.  . . z F F ) ) ) ",
"R R R R R q . .   3XjXjXdX[.[.[.,XjXjXjXeXqXqXqXqXqXqXqXqXqXqXU.H.H.G.z.z.z.%.  . . z F F ) ) ) ",
"R R R R R q . .   3XjXjXdX[.[.[.<XjXjXjXeXqXqXqXqXqXqXqXqXqXqXU.H.H.G.z.z.z.%.  . . z F F ) ) ) ",
"!.Q.M M M I q.q.0.4XrXtXwX9X9X9X9X0X0X0X&X+X+X+X+X+X+X+X+X+X+XA.p.p.f.B.B.B.:.  . . ! !.!.F F F ",
"!.R.. .   ^.jXjXjX$X[.[.;XjXjXjXpX`.`.`.`.`.`.`.`.`.`.`.`.`.`.w.o.o.-.H.H.H.1.  . . ! !.!.F F F ",
"!.R.. .   ^.jXjXjX%X[.[.;XjXjXjXpX`.`.`.`.`.`.`.`.`.`.`.`.`.`.w.o.o.-.H.H.H.1.  . . ! !.!.F F F ",
") T . .   ^.jXjXjX%X[.[.;XjXjXjXpX`.`.`.`.`.`.`.`.`.`.`.`.`.`.w.o.o.-.H.H.H.1.  . . K ) ) ) ) ) ",
") T . .   ^.jXjXjX$X[.[.XXyXyXyX<X`.`.`.`.`.`.`.`.`.`.`.`.`.`.w.o.o.-.H.H.H.N.u.i.i., $ $ $ W ) ",
") T . .   ^.jXjXjX%X[.[..XqXqXqX:X`.`.`.`.`.`.`.`.`.`.`.`.`.`.w.o.o.-.H.H.H.S.z.z.z.>   . . T ) ",
") T . .   ^.jXjXjX%X[.[..XqXqXqX:X`.`.`.`.`.`.`.`.`.`.`.`.`.`.w.o.o.-.H.H.H.S.z.z.z.>   . . R.!.",
") T . .   ^.jXjXjX-X{.}. X#X#X#X|.`.`.`.`.`.`.`.`.`.`.`.`.`.`.w.o.o.*.C.C.C.x.d.d.d.:   . . R.!.",
") T . .   ^.jXjXjXuXqXqX].s.s.s.Z.`.`.`.`.`.`.`.`.`.`.`.`.`.`.w.o.o. .d d d d d d d +   . . R.!.",
") T . .   ^.jXjXjXuXqXqX].s.s.s.Z.`.`.`.`.`.`.`.`.`.`.`.`.`.`.w.o.o. .d d d d d d d +   . . T ) ",
") T . .   ^.jXjXjXuXqXqX].s.s.s.Z.`.`.`.`.`.`.`.`.`.`.`.`.`.`.w.o.o. .d d d d d d d +   . . T ) ",
") T . .   ^.jXjXjX'._._.P.M.M.M.b.e.e.e.e.e.e.e.e.e.e.e.e.e.e.8.3.3.2.<.<.<.$.{ { { @   . . T ) ",
") T . .   ^.jXjXjXI.H.H.H.H.H.H.k.o.o.o.o.o.o.o.o.o.o.o.o.o.o.5.s.s.s.s.s.s.4.o.o.o.&   . . T ) ",
") T . .   ^.jXjXjXI.H.H.H.H.H.H.k.o.o.o.o.o.o.o.o.o.o.o.o.o.o.5.s.s.s.s.s.s.4.o.o.o.&   . . T ) ",
") T . .   ^.jXjXjXI.H.H.H.H.H.H.k.o.o.o.o.o.o.o.o.o.o.o.o.o.o.5.s.s.s.s.s.s.4.o.o.o.&   . . T ) ",
"F D m K K b t t r v.H.H.n.X.X.X.;.t.t.r.t.t.r.t.t.r.t.t.r.t.t.#.} } ..s.s.s.@.& = = J ! ! z D F ",
"F F G ) ) h . .   g.H.H.j.d d d o.s.s.s.s.s.s.s.s.s.s.s.s.s.s.o.d d ] s.s.s.o.  . . ! !.!.F F F ",
"F F G ) ) h . .   g.H.H.j.d d d o.s.s.s.s.s.s.s.s.s.s.s.s.s.s.o.d d ] s.s.s.o.  . . ! !.!.F F F ",
") ) T.R R w . .   a.F.F.h.d d d o.s.s.s.s.s.s.s.s.s.s.s.s.s.s.o.d d ' 7.7.7.|   . . S R E ) ) ) ",
") ) T.R R w . .   6.z.z.y.d d d o.s.s.s.s.s.s.s.s.s.s.s.s.s.s.o.d d f o.o.o.u   . . S R E ) ) ) ",
") ) T.R R w . .   6.z.z.y.d d d o.s.s.s.s.s.s.s.s.s.s.s.s.s.s.o.d d f o.o.o.u   . . S R E ) ) ) ",
") ) / !.!.j . .   6.z.z.y.d d d o.s.s.s.s.s.s.s.s.s.s.s.s.s.s.o.d d f o.o.o.u   . . ! !.!.!.!.!.",
") ) / !.!.V 8 8 8 O.,.,.&.` ` ` +.s.s.s.s.s.s.s.s.s.s.s.s.s.s.+.` ` _ a s s y 6 6 5 9.!.!.!.!.!.",
") ) / !.!.!.!.!.!.1 . . - o.o.o.>.s.s.s.s.s.s.s.s.s.s.s.s.s.s.>.o.o.[   . . 0 ) ) ( !.!.!.!.!.!.",
") ) ) ) ) ) ) ) T.* . . - o.o.o.>.s.s.s.s.s.s.s.s.s.s.s.s.s.s.>.o.o.[   . . 9 R R R R R E ) ) ) ",
") ) ) ) ) ) ) ) T.* . . - o.o.o.>.s.s.s.s.s.s.s.s.s.s.s.s.s.s.>.o.o.[   . . 9 R R R R R E ) ) ) ",
") ) ) ) ) ) ) ) T.U L L n o o o X O O O O O O O O O O O O O O X o o ; W.~ ~ ^ R R R R R E ) ) ) ",
"R R R R R R R R R R R E k . . .                                 . . # R R R R R R E ) ) ) ) ) ) ",
"R R R R R R R R R R R E k . . .                                 . . # R R R R R R E ) ) ) ) ) ) ",
"R R R R R R R R R R R E k . . .                                 . . # R R R R R R E ) ) ) ) ) ) "
};
