/* XPM */
static char *result[] = {
/* columns rows colors chars-per-pixel */
"48 48 230 2 ",
"   c #020202",
".  c #020402",
"X  c #020901",
"o  c #050905",
"O  c #050D04",
"+  c #070D07",
"@  c #090909",
"#  c gray4",
"$  c #0A0D09",
"%  c #0C0E0B",
"&  c #0C0C0C",
"*  c gray5",
"=  c #0D0E0C",
"-  c #0D0E0D",
";  c #0E0E0E",
":  c gray6",
">  c #031701",
",  c #051204",
"<  c #051803",
"1  c #051C02",
"2  c #0E100D",
"3  c #10110F",
"4  c #101010",
"5  c #111111",
"6  c gray7",
"7  c gray8",
"8  c #161616",
"9  c #181818",
"0  c #191919",
"q  c gray10",
"w  c #1B1B1B",
"e  c #1D1D1D",
"r  c #1E1E1E",
"t  c #052001",
"y  c #072A03",
"u  c #073102",
"i  c #093403",
"p  c #083702",
"a  c #093803",
"s  c #093D02",
"d  c #202020",
"f  c gray13",
"g  c #222222",
"h  c #232323",
"j  c gray14",
"k  c #272727",
"l  c gray16",
"z  c #2C2C2C",
"x  c #2D2D2D",
"c  c gray18",
"v  c gray19",
"b  c #313131",
"n  c #323232",
"m  c gray20",
"M  c #343434",
"N  c gray21",
"B  c #373737",
"V  c #3A3A3A",
"C  c gray23",
"Z  c #3C3C3C",
"A  c #3F3F3F",
"S  c #0B4203",
"D  c #0B4503",
"F  c #0C4704",
"G  c #0A4802",
"H  c #0C4A03",
"J  c #0B4F03",
"K  c #0C5003",
"L  c #0D5704",
"P  c #0D5804",
"I  c #0F6304",
"U  c #106F03",
"Y  c #117004",
"T  c #127505",
"R  c #117803",
"E  c #137C05",
"W  c #5A4425",
"Q  c #5B4425",
"!  c #5C492D",
"~  c #5D4A2F",
"^  c #5F4B30",
"/  c #674D28",
"(  c #614D32",
")  c #695232",
"_  c #6B5332",
"`  c #6C5332",
"'  c #6C5535",
"]  c #6C573A",
"[  c #6D583B",
"{  c #6E593C",
"}  c #775836",
"|  c #785836",
" . c #785936",
".. c #705B3E",
"X. c #795D3F",
"o. c #795E3F",
"O. c #414141",
"+. c gray26",
"@. c #434343",
"#. c #444444",
"$. c gray27",
"%. c #464646",
"&. c gray28",
"*. c #484948",
"=. c #494949",
"-. c gray29",
";. c #4C4C4C",
":. c gray30",
">. c #505050",
",. c #515151",
"<. c gray32",
"1. c #535353",
"2. c #555555",
"3. c #565656",
"4. c gray34",
"5. c #545853",
"6. c gray36",
"7. c gray37",
"8. c #5F5F5F",
"9. c #7B5F41",
"0. c #7B6041",
"q. c #606060",
"w. c #626262",
"e. c #646464",
"r. c #676767",
"t. c #686868",
"y. c DimGray",
"u. c #6A6A6A",
"i. c gray42",
"p. c #6C6C6C",
"a. c gray43",
"s. c #6F6F6F",
"d. c gray44",
"f. c #717171",
"g. c #727272",
"h. c gray45",
"j. c #747474",
"k. c gray46",
"l. c #777777",
"z. c gray47",
"x. c #797979",
"c. c gray48",
"v. c #7B7B7B",
"b. c #7C7C7C",
"n. c gray49",
"m. c #7E7E7E",
"M. c gray50",
"N. c #805E36",
"B. c #815F36",
"V. c #148305",
"C. c #158F05",
"Z. c #159004",
"A. c #159404",
"S. c #169A04",
"D. c #169B05",
"F. c #1AAE06",
"G. c #1AB305",
"H. c #1AB106",
"J. c #1AB905",
"K. c #1BBB05",
"L. c #1CBD06",
"P. c #3D9031",
"I. c #1CC007",
"U. c #1DC407",
"Y. c #1BC904",
"T. c #1BCB04",
"R. c #1DC807",
"E. c #1DCC05",
"W. c #1CCE04",
"Q. c #1CCF04",
"!. c #1DCD06",
"~. c #1ED306",
"^. c #1DD705",
"/. c #1FD806",
"(. c #1FDE05",
"). c #1FDD06",
"_. c #1FE006",
"`. c #1FE306",
"'. c #20E506",
"]. c #21E407",
"[. c #20E906",
"{. c #21EB06",
"}. c #22EF07",
"|. c #22EA08",
" X c #22F106",
".X c #22F007",
"XX c #23F607",
"oX c #23F707",
"OX c #23FA07",
"+X c #24FB07",
"@X c #24FD07",
"#X c #24FE07",
"$X c #24FF07",
"%X c #24FC08",
"&X c #25FD08",
"*X c #25FE08",
"=X c #25FF08",
"-X c #808080",
";X c #818181",
":X c #838383",
">X c gray52",
",X c #888888",
"<X c #898989",
"1X c gray55",
"2X c #8D8D8D",
"3X c #8E8E8E",
"4X c gray56",
"5X c #909090",
"6X c #939393",
"7X c #989898",
"8X c #9B9B9B",
"9X c #9F9F9F",
"0X c gray64",
"qX c #A9A9A9",
"wX c #ACACAC",
"eX c #AFAFAF",
"rX c gray70",
"tX c #B9B9B9",
"yX c #BBBBBB",
"uX c gray",
"iX c gray75",
"pX c #94C58E",
"aX c gray83",
"sX c #D5D5D5",
"dX c gray84",
"fX c #D8D8D8",
"gX c gray85",
"hX c #DADADA",
"jX c gray86",
"kX c gainsboro",
/* pixels */
"W W Q }  . ._ _ _ / / / Q W Q }  . .B.B.B.` _ _ W W Q }  . . . . .B.B.N.W W Q }  . ._ _ _ / / / ",
"W W W |  . ._ _ _ / / / W W W |  . .B.B.B.` _ _ W W W |  . . . . .B.B.N.W W W |  . ._ _ _ / / / ",
"W W W |  . ._ _ _ / / / W W W |  . .N.N.N.` _ _ W W W |  . . . . .B.B.N.W W W |  . ._ _ _ / / / ",
"W W W _ _ _  . .| / / / W W W _ _ _ / / / _ _ _ W W W _ _ _ _ _ _ |  .| W W W _ _ _  . .| / / / ",
"W W W _ _ _  . . ./ / / W W W _ _ _ / / / _ _ _ W W W _ _ _ _ _ _ |  .| W W W _ _ _  . . ./ / / ",
"^ ^ ^ { { [ 0.0.9.' ' ' ( ( ( ......) ) ) ] ] ] ~ ~ ~ ............9.0.9.! ! ! { { { o.o.X.) ) ) ",
"M.M.n.t.t.r.j.j.j.j.j.k.t.t.r.j.j.j.j.j.j.j.j.j.4X4X4Xj.j.j.M.M.M.M.M.M.M.M.m.4X4X4XM.M.M.M.M.M.",
"M.M.n.t.t.r.j.j.j.j.j.k.t.t.r.j.j.j.j.j.j.j.j.j.4X4X4Xj.j.j.M.M.M.M.M.M.M.M.m.4X4X4XM.M.M.M.M.M.",
"M.M.n.t.t.r.j.j.j.j.j.k.t.t.r.j.j.j.j.j.j.j.j.j.4X4X4Xj.j.j.M.M.M.M.M.M.M.M.m.4X4X4XM.M.M.M.M.M.",
"M.M.n.4X4X5XM.M.M.M.M.M.n.M.n.t.t.u.M.M.m.4X4X4XM.M.M.M.M.M.j.j.j.j.j.j.j.j.j.j.j.j.j.j.k.M.M.M.",
"M.M.n.4X4X5XM.M.M.M.M.M.g 6 d k M +.8.a.v.4X4X4XM.M.M.M.M.M.j.j.j.j.j.j.j.j.j.j.j.j.j.j.k.M.M.M.",
"M.M.n.4X4X5XM.M.M.M.M.k.o D.F.C.U K u > . 4 f n Z ;.6.i.z.M.j.j.j.j.j.j.j.j.j.j.j.j.j.j.k.M.M.M.",
"M.M.n.4X4X4X4X4X3Xj.j.:.p Q.XX$X$X$X$XOX.X~.G.A.T L a 1 O # r v O.<.e.k.:X2X4X4X4X4X4X4X4Xt.t.t.",
"M.M.n.4X4X4X4X4X3Xj.j.x R OXW.$X$X$X$X$X$X$X$X$X$X$X$X+X}./.J.S.E P X   c M.4X4X4X4X4X4X4Xt.t.t.",
"M.M.n.4X4X4X4X4X3Xj.j.C G $X^. X$X$X$X$X$X$X$X$X$X$X$X$X$X$X$X#XL.i q t.4X4X4X4X4X4X4X4X4Xt.t.t.",
"j.j.j.j.j.h.M.M.M.M.M.l.% R.%XE.$X$X$X$X$X$X$X$X$X$X$X$X$X$X/.J - ;.m.m.j.j.j.j.j.h.t.t.t.M.M.M.",
"j.j.j.j.j.h.M.M.M.M.M.M.@.H *X).{.$X$X$X$X$X$X$X$X$X$X$X|.Y + Z z.M.M.m.j.j.j.j.j.h.t.t.t.M.M.M.",
"j.j.j.j.j.h.M.M.M.M.M.M.x.= U.&XT.$X$X$X$X$X$X$X$X$XoXZ.< j s.M.M.M.M.m.j.j.j.j.j.h.t.t.t.M.M.M.",
"4X4X4X4X4X5XM.M.M.-X-X-XM.$.F *X`.'.$X$X$X$X$X$X&XH.y e w.M.M.M.M.M.M.m.4X4X4X4X4X4X4X4X4Xt.t.t.",
"4X4X4X4X4X5XM.M.M.-X-X-XM.c.- I.#XY.$X$X$X$X$X!.D 4 1.M.M.M.M.M.M.M.M.m.4X4X4X4X4X4X4X4X4Xt.t.t.",
"4X4X4X4X4X5XM.M.M.-X-X-XM.M.*.S @X[.(.$X=X].I $ @.v.M.M.M.M.M.M.M.M.M.m.4X4X4X4X4X4X4X4X4Xt.t.t.",
"M.M.M.M.M.M.M.M.-Xj.j.j.j.j.s.2 K.$XT..XV., c y.j.j.j.t.t.t.j.j.j.j.j.j.j.j.j.j.j.k.M.M.M.M.M.M.",
"M.M.M.M.M.M.M.M.-Xj.j.j.j.j.j.@.s #X_.t e 7.j.j.j.j.j.t.t.t.j.j.j.j.j.j.j.j.j.j.j.k.M.M.M.M.M.M.",
"M.M.M.M.M.M.M.M.-Xj.j.j.j.j.j.d.3 P.pX5.v j.j.j.j.j.j.t.t.t.j.j.j.j.j.j.j.j.j.j.j.k.M.M.M.M.M.M.",
"M.M.n.4X4X4X4X4X3Xt.t.y.4X4X4Xj.$.b jXuX* f.M.M.M.M.m.4X4X4X4X4X4X4X4X4X4X4X4X4X4X4X4X4X4X4X4X4X",
"M.M.n.4X4X4X4X4X3Xt.t.y.4X4X4Xj.f.5 8XkX3.B M.M.M.M.m.4X4X4X4X4X4X4X4X4X4X4X4X4X4X4X4X4X4X4X4X4X",
"M.M.n.4X4X4X4X4X3Xt.t.y.4X4X4Xj.j.&.v gXyX& j.M.M.M.m.4X4X4X4X4X4X4X4X4X4X4X4X4X4X4X4X4X4X4X4X4X",
"M.M.-Xj.j.j.j.j.j.j.j.j.j.j.j.j.j.g.4 7XkX,.V m.t.t.y.M.M.M.M.M.m.j.j.j.j.j.j.j.j.g.4X4X3XM.M.M.",
"M.M.-Xj.j.j.j.j.j.j.j.j.j.j.j.j.j.j.=.z fXtX# h.t.t.y.M.M.M.M.M.m.j.j.j.j.j.j.j.j.g.4X4X3XM.M.M.",
"M.M.-Xj.j.j.j.j.j.j.j.j.j.j.j.j.j.j.g.7 6XkX:.Z t.t.y.M.M.M.M.M.m.j.j.j.j.j.j.j.j.g.4X4X3XM.M.M.",
"M.M.M.M.M.n.4X4X3Xj.j.j.j.j.j.4X4X4X4X6.l fXrX& q.t.t.j.j.h.4X4X4X4X4X4X4X4X4XM.M.M.M.M.M.M.M.M.",
"M.M.M.M.M.n.4X4X3Xj.j.j.j.j.j.4X4X4X4X2Xw 5XkX&.M t.t.j.j.h.4X4X4X4X4X4X4X4X4XM.M.M.M.M.M.M.M.M.",
"M.M.M.M.M.n.4X4X3Xj.j.j.j.j.j.4X4X4X4X4X8.j gXeX& w.t.j.j.h.4X4X4X4X4X4X4X4X4XM.M.M.M.M.M.M.M.M.",
"t.t.u.M.M.M.M.M.M.M.M.-Xj.j.h.M.M.M.M.M.m.0 1XkX#.-.4X4X4X4XM.M.M.M.M.M.M.M.m.4X4X4X4X4X4Xt.t.t.",
"t.t.u.M.M.M.M.M.M.M.M.-Xj.j.h.M.M.M.M.M.M.4.h dXwX; ,X4X4X4XM.M.M.M.M.M.M.M.m.4X4X4X4X4X4Xt.t.t.",
"t.t.u.M.M.M.M.M.M.M.M.-Xj.j.h.M.M.M.M.M.M.M.0 ,XjXA :.4X4X4XM.M.M.M.M.M.M.M.m.4X4X4X4X4X4Xt.t.t.",
"M.M.-Xj.j.j.j.j.j.j.j.j.j.j.j.j.j.j.j.j.j.j.,.f sXqX: <X4X5Xj.j.j.j.j.j.j.j.j.j.j.j.j.j.k.M.M.M.",
"M.M.-Xj.j.j.j.j.j.j.j.j.j.j.j.j.j.j.j.j.j.j.j.q >XjXC >.4X5Xj.j.j.j.j.j.j.j.j.j.j.j.j.j.k.M.M.M.",
"M.M.-Xj.j.j.j.j.j.j.j.j.j.j.j.j.j.j.j.j.j.j.j.1.r aX0X6 <X5Xj.j.j.j.j.j.j.j.j.j.j.j.j.j.k.M.M.M.",
"M.M.n.4X4X4X4X4X4X4X4X4X4X4X4X4X4X5XM.M.M.j.j.j.w ;XjXN #.j.t.t.y.j.j.k.M.M.M.M.M.m.4X4X4X4X4X4X",
"M.M.n.4X4X4X4X4X4X4X4X4X4X4X4X4X4X5XM.M.M.j.j.j.2.q aX9X4 f.t.t.y.j.j.k.M.M.M.M.M.m.4X4X4X4X4X4X",
"M.M.n.4X4X4X4X4X4X4X4X4X4X4X4X4X4X5XM.M.M.j.j.j.j.r b.hXm %.t.t.y.j.j.k.M.M.M.M.M.m.4X4X4X4X4X4X",
"M.M.M.M.M.M.M.M.-Xj.j.j.j.j.j.j.j.j.j.j.j.j.j.j.M.q.9 iX%.8 4X4X4X4X4X4XM.M.m.j.j.j.j.j.k.M.M.M.",
"M.M.M.M.M.M.M.M.-Xj.j.j.j.j.j.j.j.j.j.j.j.j.j.j.M.M.g @ z p.4X4X4X4X4X4XM.M.m.j.j.j.j.j.k.M.M.M.",
"M.M.M.M.M.M.M.M.-Xj.j.j.j.j.j.j.j.j.j.j.j.j.j.j.M.M.t.e.M.m.4X4X4X4X4X4XM.M.m.j.j.j.j.j.k.M.M.M.",
"j.j.j.j.j.j.j.j.j.j.j.k.t.t.y.4X4X4X4X4X4XM.M.M.M.M.M.M.M.M.M.M.m.j.j.j.j.j.j.j.j.k.M.M.M.M.M.M.",
"j.j.j.j.j.j.j.j.j.j.j.k.t.t.y.4X4X4X4X4X4XM.M.M.M.M.M.M.M.M.M.M.m.j.j.j.j.j.j.j.j.k.M.M.M.M.M.M.",
"j.j.j.j.j.j.j.j.j.j.j.k.t.t.y.4X4X4X4X4X4XM.M.M.M.M.M.M.M.M.M.M.m.j.j.j.j.j.j.j.j.k.M.M.M.M.M.M."
};
