/* XPM */
static char *result[] = {
/* columns rows colors chars-per-pixel */
"48 48 62 1 ",
"  c #363635",
". c #373635",
"X c gray21",
"o c #373636",
"O c #3F3F3F",
"+ c #553A1F",
"@ c #553B1F",
"# c #563A1F",
"$ c #563B1F",
"% c #553A20",
"& c #553B20",
"* c #563A20",
"= c #403F3E",
"- c #403F3F",
"; c #594424",
": c #594425",
"> c #5A4424",
", c #5A4425",
"< c #5B4425",
"1 c #5A4426",
"2 c #40403F",
"3 c #654D28",
"4 c #664D28",
"5 c #674D28",
"6 c #664D29",
"7 c #674D29",
"8 c #6B5331",
"9 c #6A5232",
"0 c #6B5232",
"q c #6B5332",
"w c #6B5333",
"e c #6C5332",
"r c #6C5333",
"t c #775835",
"y c #775836",
"u c #775936",
"i c #775837",
"p c #785836",
"a c #795836",
"s c #785936",
"d c #795936",
"f c #795837",
"g c #785937",
"h c #7F5E36",
"j c #7F5E37",
"k c #7F5F37",
"l c #785938",
"z c #403F40",
"x c gray25",
"c c #686767",
"v c #686867",
"b c #686768",
"n c #686868",
"m c #696868",
"M c #805E35",
"N c #805E36",
"B c #815E36",
"V c #805F36",
"C c #815F36",
"Z c #805E37",
"A c #805F37",
"S c #815F37",
/* pixels */
",,<yssqqq555<,<yssCCCeqq,,<ysssssCCN,,<yssqqq555",
",,,pssqqq555,,,pssCCCeqq,,,psssssCCN,,,pssqqq555",
",,,pssqqq555,,,pssNNNeqq,,,psssssCCN,,,pssqqq555",
",,,qqqssp555,,,qqq555qqq,,,qqqqqqpsp,,,qqqssp555",
",,,qqqsss555,,,qqq555qqq,,,qqqqqqpsp,,,qqqsss555",
",,,qqqssp555,,,qqq555qqq,,,qqqqqqpsp,,,qqqssp555",
"+++hVNeqq555++$hVN555qqq@+@hVVssseqq@+@hVNeqq555",
"++#NCVqqq755++#NCN555qqq++#NCCsssqqq@+#NCVqqq755",
"++*hNNwww644++#hNN777000@+#ZSZuuyrww@+#hNNwww644",
",,,--2cvco  >>>--xbncXX ;>,vvv2-2cvv1,,--2cnco  ",
",,,-OOnnnXX ,,,-OOnnnXX ,,,nnnOOOnnv1,,-OOnnnXXX",
",,,=O2cvcoX ,,,-O2cncoX :,,cvc2O2vvv1,,=O2cnco  ",
"+++644777099+++446qww333++#677444qww+++644qww333",
"+++555555qqq+++555qqq555+++555555qqq+++555qqq555",
"+++555555qqq+++555qqq555+++555555qqq+++555qqq555",
"+++5558q8hVh#+#hVh455555++#hVjqqqkAh#+#hVh455555",
"+++555qqqVCN#+#NCV455555++#NCVqqqACN#+#NCN455555",
"+++555qqqVCN#+#NNM555555++#NCVrqqkAh#+#NCN555555",
"+++555qqqVCN#++555tst555++#NCCssueqq++#NCVqqq555",
"+++555qqqVCN#++555sss555++#NCCsssqqq++#NCVqqq555",
"+++555qqqNCN#++555sss555++#NCCsssqqq++#NCNqqq555",
"+++555pssssp*++qqqBCN555++#psssss654++#pssqqq555",
"+++555sssssu*++qqqBCN555++#psssss455++#pssqqq555",
"+++555ssssst*++qqqBCN555++#psssss455++#psseqq555",
"+++555sssqqq+++755BCBqq8++#pssACN455++#pssssu555",
"+++555sssqqq+++555BCBqqq++#pssCCV455++#pssssu555",
"+++555sssqqq+++555BCBqqq#+*pssCCV455++#pssssu555",
",,<555NCN575<,<555BCCgsy<,,qqqBCVqqq,,,qqqssu555",
",,<555VCV555<,,455BCCgsy<,,qqqBCVqqq,,,qqqssu555",
",,<555VCV555,,,455BCCsst<,,qqqBCVqqq,,,qqqsss555",
",,<555VCVqqq,,,455BCN555<,,657BCCasp,,,655NCN555",
",,<555VCVqqq,,,455BCN555,,,755BCCssp,,,755BCN555",
",,,555VCVeeq,,,555NBN555<,,555BCCdsp,,,755ZNN555",
"+++555VCCCCN#++555qqq555@+@555BCCCCN#++5558qq555",
"+++555VCCCCN#++555qqq555+++555BCCCCN#++555qqq555",
"+++447ZAANNh#++646www664+++677ZAZAAZ#++446www666",
"+++-O-vncoo.+++--zbnco  ++&cnbx--bmc%++=O-bncX  ",
"+++OOOnnnXX +++OOOnnnXXX++&bnnxOOnnv%++OOOnnnXXX",
"+++=O2vvvo  +++=--vmcoo ++&cncx-xcvc&++=--vmno  ",
",,<hNNwww444>>,646ZAZppy,,,777NZZlgi>>,667ZAZ444",
",,,NCVqqq555<,,555BCCsss,,,555BCCgss,,,555BCB455",
",,,NCVeqq555<,,755NNNsss,,,755NCBsss,,,755NNM455",
",,,NCCssy555<,,yspeqeACN,,,ysssssBCN<,,yspeqq555",
",,,NCCsss555<,,sssqqeACN,,,ysssssCCN<,,sssqqq555",
",,,NCCsss555<,,ysseqeACN,,,ysssssBCN<,,yspqqq555",
",,,NCCsss555<,,qqqsssssp,,,qqqqqqfgp,,,qqqssu555",
",,,NCCsss555<,,qqqsssssp,,,qqqqqqsss,,,qqqsss555",
",,,NCCsss555<,,qqqsssssp,,,qqqqqqsss,,,qqqsss555"
};
