/* XPM */
static char *result[] = {
/* columns rows colors chars-per-pixel */
"48 48 186 2 ",
"   c #271708",
".  c #241808",
"X  c #251808",
"o  c #271B09",
"O  c #261A0A",
"+  c #271A0A",
"@  c #261A0B",
"#  c #271C09",
"$  c #291C0B",
"%  c #291C0C",
"&  c #2A1D0D",
"*  c #2A1E0D",
"=  c #2B1E0D",
"-  c #2A1E0E",
";  c #2B1E0E",
":  c #2B1F0F",
">  c #2E1F0C",
",  c #2C1D0E",
"<  c #2C1E0E",
"1  c #2D1E0F",
"2  c #2C1F0F",
"3  c #2E1E0F",
"4  c #2F1F0F",
"5  c #2C1E10",
"6  c #2D1E11",
"7  c #2F1F10",
"8  c #2E1E11",
"9  c #301E10",
"0  c #2F200D",
"q  c #30210E",
"w  c #3F200B",
"e  c #3E220C",
"r  c #3F220C",
"t  c #322411",
"y  c #332411",
"u  c #332512",
"i  c #342512",
"p  c #342413",
"a  c #352613",
"s  c #3F2A15",
"d  c #421D0A",
"f  c #421D0B",
"g  c #40200A",
"h  c #40200B",
"j  c #41210C",
"k  c #42200C",
"l  c #43200C",
"z  c #44210D",
"x  c #45220D",
"c  c #46210E",
"v  c #45220E",
"b  c #48200E",
"n  c #412912",
"m  c #422912",
"M  c #432A13",
"N  c #6C3F31",
"B  c #6C422A",
"V  c #6D432B",
"C  c #6D432C",
"Z  c #6F452D",
"A  c #71442D",
"S  c #694030",
"D  c #6A4030",
"F  c #6B4030",
"G  c #7B4D33",
"H  c #7A4E33",
"J  c #7B4D35",
"K  c #7A4E35",
"L  c #894D3D",
"P  c #8A4C3D",
"I  c #8A4D3E",
"U  c #8D4C3F",
"Y  c #8C4D3F",
"T  c #805332",
"R  c #805334",
"E  c #825335",
"W  c #815434",
"Q  c #805238",
"!  c #815339",
"~  c #80523A",
"^  c #82553B",
"/  c #83553B",
"(  c #83553D",
")  c #8F5E3C",
"_  c #8F5E3D",
"`  c #8F5D3E",
"'  c #8F5E3E",
"]  c #8F5E3F",
"[  c #905D3B",
"{  c #915E41",
"}  c #905E43",
"|  c #915E43",
" . c #965F40",
".. c #975E41",
"X. c #965F41",
"o. c #9C6346",
"O. c #9B6348",
"+. c #9B6A4A",
"@. c #9C694A",
"#. c #9C694C",
"$. c #9D6A4D",
"%. c #9C694E",
"&. c #9B735B",
"*. c #9C725B",
"=. c #9B725C",
"-. c #9C725C",
";. c #A26B45",
":. c #A26A47",
">. c #A16A48",
",. c #A06B48",
"<. c #A26A49",
"1. c #AC7757",
"2. c #AB7559",
"3. c #AB7659",
"4. c #AC7658",
"5. c #AD755A",
"6. c #AC765A",
"7. c #AB765C",
"8. c #AB7D65",
"9. c #AA7D66",
"0. c #AB7D66",
"q. c #A97E66",
"w. c #AC7E67",
"e. c #A97D68",
"r. c #AB7D68",
"t. c #B27B61",
"y. c #B17B62",
"u. c #B37B62",
"i. c #B27C60",
"p. c #B27C61",
"a. c #B57B65",
"s. c #B57B67",
"d. c #B67C66",
"f. c #B57A68",
"g. c #AD806C",
"h. c #AD806D",
"j. c #AE816D",
"k. c #AE816E",
"l. c #B3846E",
"z. c #B3846F",
"x. c #B4846E",
"c. c #B5846E",
"v. c #BF876C",
"b. c #B6896A",
"n. c #B6896B",
"m. c #B6896C",
"M. c #BB8A69",
"N. c #BE886C",
"B. c #BE886D",
"V. c #B68171",
"C. c #B78272",
"Z. c #B38570",
"A. c #B58276",
"S. c #B88271",
"D. c #BD8770",
"F. c #BB8872",
"G. c #BA8972",
"H. c #BB8972",
"J. c #BB8A73",
"K. c #BC8870",
"L. c #BC8A71",
"P. c #BD8A71",
"I. c #BC8872",
"U. c #BD8B72",
"Y. c #BC8A73",
"T. c #BE8A72",
"R. c #BD8E72",
"E. c #BC8F72",
"W. c #BB8A74",
"Q. c #BC8E74",
"!. c #BD8E74",
"~. c #C6967F",
"^. c #533D87",
"/. c #543D86",
"(. c #523B89",
"). c #523D88",
"_. c #533D88",
"`. c #533C8A",
"'. c #533C8C",
"]. c #C69680",
"[. c #FFFFFC",
"{. c #FEFEFE",
"}. c #FFFFFE",
"|. c #FFFEFF",
" X c #FEFFFF",
".X c white",
/* pixels */
"0 0 0 0 0 0 ; ; ; ; ; ; 9 9 9 9 9 9 % % % % % % X X X X X X + + + + + + ; ; ; ; ; ; & & & & & & ",
"q q q q q 0 ; ; ; ; ; ; 9 9 9 9 9 9 % % % % % % X X X X X X + + + + + + ; ; ; ; ; ; & & & & & & ",
"q q q q q 0 ; ; ; ; ; ; 9 9 9 9 9 9 % % % % % % X X X X X X + + + + + + ; ; ; ; ; ; & & & & & & ",
"q q q q q 0 ; ; ; ; ; ; 9 9 9 9 9 9 % % % % % % X X X X X X + + + + + + ; ; ; ; ; ; & & & & & & ",
"q q q q q 0 ; ; ; ; ; ; 9 9 9 9 9 9 % % % % % % X X X X X X + + + + + + ; ; ; ; ; ; & & & & & & ",
"0 0 0 0 0 4 ; ; ; ; ; , 7 7 7 7 7 7 % % % % % $           . O @ @ @ @ @ ; ; ; ; ; ; & & & & & & ",
"; ; ; ; ; ; ; ; ; ; ; ; ; ; ; ; ; ; y i i i i u M M M M M m s s s s s s < 3 3 3 3 2 % % % % % # ",
"; ; ; ; ; ; ; ; ; ; ; ; ; ; ; ; ; ; y i i i i u M M M M M m s s s s s s < 3 3 3 3 2 % % % % % # ",
"; ; ; ; ; ; ; ; ; ; ; ; ; ; ; ; ; ; y i i i i u M M M M M m s s s s s s < 3 3 3 3 2 % % % % % # ",
"; ; ; ; ; ; ; ; ; ; ; ; ; ; ; ; ; ; y i i i i u M M M M M m s s s s s s < 3 3 3 3 2 % % % % % # ",
"; ; ; ; ; ; ; ; ; ; ; ; ; ; ; ; ; ; y i i i i u M M M M M m s s s s s s < 3 3 3 3 2 % % % % % # ",
"; ; ; ; ; - ; ; ; ; ; ; * = = = = = t u u u u u M M M M M n s s s s s s 5 1 1 1 1 : $ $ $ $ $ o ",
"; ; ; ; ; > b.b.b.b.b.n.E.R.R.R.R.R.].].].].].~.T.T.T.T.T.P.!.Q.Q.Q.Q.Q.3.4.4.4.4.1.a a a a a p ",
"; ; ; ; ; 8 m.m.m.m.m.m.R.R.R.R.R.R.].].].].].].U.U.U.U.U.L.Q.!.!.!.!.!.6.5.5.5.5.7.a a a a a i ",
"; ; ; ; ; 8 m.m.m.m.m.m.R.R.R.R.R.R.].].].].].].U.U.U.U.U.L.Q.!.!.!.!.!.6.5.5.5.5.7.a a a a a i ",
"; ; ; ; ; 8 m.m.m.m.m.m.R.R.R.R.R.R.].].].].].].U.U.U.U.U.L.Q.!.!.!.!.!.6.5.5.5.5.7.a a a a a i ",
"; ; ; ; ; 8 m.m.m.m.m.m.R.R.R.R.R.R.].].].].].].U.U.U.U.U.L.Q.!.!.!.!.!.6.5.5.5.5.7.a a a a a i ",
"; ; ; ; ; 6 m.m.m.m.m.m.R.R.R.R.R.R.].].].].].].U.U.U.U.U.U.Q.!.!.!.!.!.2.5.5.5.5.7.a a a a a a ",
"0.w.w.w.w.w.x.x.x.x.x.x.9.0.0.0.0.0.h.k.k.k.k.k.-.-.-.-.-.&.F.Y.Y.Y.Y.Y.#.#.#.#.#.#.$.$.$.$.$.#.",
"0.0.0.0.0.0.x.x.x.x.x.x.9.0.0.0.0.0.h.k.k.k.k.k.-.-.-.-.-.-.I.Y.Y.Y.Y.Y.#.#.#.#.#.#.#.#.#.#.#.#.",
"0.0.0.0.0.0.x.x.x.x.x.x.9.0.0.0.0.0.h.k.k.k.k.k.-.-.-.-.-.-.I.Y.Y.Y.Y.Y.#.#.#.#.#.#.#.#.#.#.#.#.",
"0.0.0.0.0.0.x.x.x.x.x.x.9.0.0.0.0.0.h.k.k.k.k.k.-.-.-.-.-.-.I.Y.Y.Y.Y.Y.#.#.#.#.#.#.#.#.#.#.#.#.",
"0.0.0.0.0.0.x.x.x.x.x.x.9.0.0.0.0.0.h.k.k.k.k.k.-.-.-.-.-.-.I.Y.Y.Y.Y.Y.#.#.#.#.#.#.#.#.#.#.#.#.",
"0.0.0.0.0.8.z.l.l.l.l.Z.e.q.q.q.q.q.g.j.j.j.j.j.=.=.=.=.=.*.G.W.W.W.W.J.%.#.#.#.#.+.@.@.@.@.@.@.",
"x.x.x.x.x.c..X.X.X.X.X.X_.`.`.`.`.`.f.s.s.s.s.s.Y.Y.Y.Y.Y.H.).`.`.`.`.(..X.X.X.X.X|.0.0.0.0.0.9.",
"x.x.x.x.x.c..X.X.X.X.X.X_.`.`.`.`.`.f.s.s.s.s.s.Y.Y.Y.Y.Y.H.).`.`.`.`.(..X.X.X.X.X|.0.0.0.0.0.9.",
"x.x.x.x.x.c..X.X.X.X.X.X_.`.`.`.`.`.f.s.s.s.s.s.Y.Y.Y.Y.Y.H.).`.`.`.`.(..X.X.X.X.X|.0.0.0.0.0.9.",
"x.x.x.x.x.c..X.X.X.X.X.X_.`.`.`.`.`.f.s.s.s.s.s.Y.Y.Y.Y.Y.H.).`.`.`.`.(..X.X.X.X.X|.0.0.0.0.0.9.",
"x.x.x.x.x.c..X.X.X.X.X.X_.`.`.`.`.`.f.s.s.s.s.s.Y.Y.Y.Y.Y.H.).`.`.`.`.(..X.X.X.X.X|.0.0.0.0.0.9.",
"l.l.l.l.l.S.{.{.{.{.{.[.'.^.^.^.^.^.a.d.d.d.d.d.K.K.K.K.K.D./.`.`.`.`.`..X}.}.}.}. X0.0.0.0.0.r.",
"o.o.o.o.o.O.p.i.i.i.i.y.A.C.C.C.C.V.D D D D D F D D D D D N M.N.N.N.N.N.>.>.>.>.>.,.T T T T T W ",
"o.o.o.o.o.o.u.u.u.u.u.t.C.C.C.C.C.V.F F F F F F F F F F F S B.v.v.v.v.v.<.:.:.:.:.;.R R R R R E ",
"o.o.o.o.o.o.u.u.u.u.u.t.C.C.C.C.C.V.F F F F F F F F F F F S B.v.v.v.v.v.<.:.:.:.:.;.R R R R R E ",
"o.o.o.o.o.o.u.u.u.u.u.t.C.C.C.C.C.V.F F F F F F F F F F F S B.v.v.v.v.v.<.:.:.:.:.;.R R R R R E ",
"o.o.o.o.o.o.u.u.u.u.u.t.C.C.C.C.C.V.F F F F F F F F F F F S B.v.v.v.v.v.<.:.:.:.:.;.R R R R R E ",
"o.o.o.o.o.o.u.u.u.u.u.t.C.C.C.C.C.V.F F F F F F F F F F F S B.v.v.v.v.v.<.:.:.:.:.;.R R R R R E ",
"| | | | | | X.X.X.X.X.X.e k k k k k L L L L L L L L L L L I c x x x x x [ ` ` ` ` _ ! ! ! ! ! ~ ",
"} } } } } |  . . . . . .j j j j j j P P P P P P P P P P P Y v v v v v v ' ' ' ' ' _ ! ! ! ! ! Q ",
"} } } } } |  . . . . . .j j j j j j P P P P P P P P P P P Y v v v v v v ' ' ' ' ' _ ! ! ! ! ! Q ",
"} } } } } |  . . . . . .j j j j j j P P P P P P P P P P P Y v v v v v v ' ' ' ' ' _ ! ! ! ! ! Q ",
"} } } } } |  . . . . . .j j j j j j P P P P P P P P P P P Y v v v v v v ' ' ' ' ' _ ! ! ! ! ! Q ",
"| | | | | { ..........X.r j j j j j L L L L L L L L L L L U b v v v v v ) _ _ _ _ ] ! ! ! ! ! ~ ",
"Z Z Z Z Z Z V V V V V B j j j j j j f f f f f d v v v v v v v v v v v v ^ / / / / / H H H H H K ",
"Z Z Z Z Z Z V V V V V B j j j j j j f f f f f d v v v v v v v v v v v v ^ / / / / / H H H H H K ",
"Z Z Z Z Z Z V V V V V B j j j j j j f f f f f d v v v v v v v v v v v v ^ / / / / / H H H H H K ",
"Z Z Z Z Z Z V V V V V B j j j j j j f f f f f d v v v v v v v v v v v v ^ / / / / / H H H H H K ",
"Z Z Z Z Z Z V V V V V B j j j j j j f f f f f d v v v v v v v v v v v v ^ / / / / / H H H H H K ",
"Z Z Z Z Z A V V V V V C g h h h h w d d d d d d z z z z z z z z z z z l ( / / / / ( G G G G G J "
};
