/* XPM */
static char *result[] = {
/* columns rows colors chars-per-pixel */
"48 48 15 1 ",
"  c #676767",
". c #686868",
"X c DimGray",
"o c #6A6A6A",
"O c #727272",
"+ c gray45",
"@ c #747474",
"# c gray46",
"$ c gray49",
"% c #7E7E7E",
"& c gray50",
"* c #808080",
"= c #8E8E8E",
"- c gray56",
"; c #909090",
/* pixels */
"&&*@@@@@@@@@@@+&&$------...---&&%@@@@@@@@@@@#&&&",
"&&*@@@@@@@@@@@+&&$------...---&&%@@@@@@@@@@@#&&&",
"&&*@@@@@@@@@@@+&&$------...---&&%@@@@@@@@@@@#&&&",
"&&&&&$------------@@@@@@@@+---------...&&&&&%@@@",
"&&&&&$------------@@@@@@@@+---------...&&&&&%@@@",
"&&&&&$------------@@@@@@@@+---------...&&&&&%@@@",
"&&$.. @@@@@#.. @@@@@@@@@---@@@&&&&&&&&%---&&&&&&",
"&&$.. @@@@@#.. @@@@@@@@@---@@@&&&&&&&&%---&&&&&&",
"&&$.. @@@@@#.. @@@@@@@@@---@@@&&&&&&&&%---&&&&&&",
"&&$--;&&&&&&&&$..o&&%---&&&&&&@@@@@@@@@@@@@@#&&&",
"&&$--;&&&&&&&&$..o&&%---&&&&&&@@@@@@@@@@@@@@#&&&",
"&&$--;&&&&&&&&$..o&&%---&&&&&&@@@@@@@@@@@@@@#&&&",
"&&$-----=@@@@@@@@@@@@@@@@@@@@+---------------...",
"&&$-----=@@@@@@@@@@@@@@@@@@@@+---------------...",
"&&$-----=@@@@@@@@@@@@@@@@@@@@+---------------...",
"@@@@@+&&&&&&&&*@@@@@@@@@&&%..X&&&&&%@@@@@+...&&&",
"@@@@@+&&&&&&&&*@@@@@@@@@&&%..X&&&&&%@@@@@+...&&&",
"@@@@@+&&&&&&&&*@@@@@@@@@&&%..X&&&&&%@@@@@+...&&&",
"-----;&&&***&&*@@@------&&&&&&&&&&&%---------...",
"-----;&&&***&&*@@@------&&&&&&&&&&&%---------...",
"-----;&&&***&&*@@@------&&&&&&&&&&&%---------...",
"&&&&&&&&*@@@@@@@@@@@@@@@@@@...@@@@@@@@@@@#&&&&&&",
"&&&&&&&&*@@@@@@@@@@@@@@@@@@...@@@@@@@@@@@#&&&&&&",
"&&&&&&&&*@@@@@@@@@@@@@@@@@@...@@@@@@@@@@@#&&&&&&",
"&&$-----=..X---@@@&&&&&&&&%---------------------",
"&&$-----=..X---@@@&&&&&&&&%---------------------",
"&&$-----=..X---@@@&&&&&&&&%---------------------",
"&&*@@@@@@@@@@@@@@@@@@&&%..X&&&&&%@@@@@@@@O--=&&&",
"&&*@@@@@@@@@@@@@@@@@@&&%..X&&&&&%@@@@@@@@O--=&&&",
"&&*@@@@@@@@@@@@@@@@@@&&%..X&&&&&%@@@@@@@@O--=&&&",
"&&&&&$--=@@@@@@------@@@...@@+---------&&&&&&&&&",
"&&&&&$--=@@@@@@------@@@...@@+---------&&&&&&&&&",
"&&&&&$--=@@@@@@------@@@...@@+---------&&&&&&&&&",
"..o&&&&&&&&*@@+&&&&&&&&%------&&&&&&&&%------...",
"..o&&&&&&&&*@@+&&&&&&&&%------&&&&&&&&%------...",
"..o&&&&&&&&*@@+&&&&&&&&%------&&&&&&&&%------...",
"&&*@@@@@@@@@@@@@@@@@@@@@-----;@@@@@@@@@@@@@@#&&&",
"&&*@@@@@@@@@@@@@@@@@@@@@-----;@@@@@@@@@@@@@@#&&&",
"&&*@@@@@@@@@@@@@@@@@@@@@-----;@@@@@@@@@@@@@@#&&&",
"&&$--------------;&&&@@@@@@@@@..X@@#&&&&&%------",
"&&$--------------;&&&@@@@@@@@@..X@@#&&&&&%------",
"&&$--------------;&&&@@@@@@@@@..X@@#&&&&&%------",
"&&&&&&&&*@@@@@@@@@@@@@@@&&&&&%------&&%@@@@@#&&&",
"&&&&&&&&*@@@@@@@@@@@@@@@&&&&&%------&&%@@@@@#&&&",
"&&&&&&&&*@@@@@@@@@@@@@@@&&&&&%------&&%@@@@@#&&&",
"@@@@@@@@@@@#..X------&&&&&&&&&&&%@@@@@@@@#&&&&&&",
"@@@@@@@@@@@#..X------&&&&&&&&&&&%@@@@@@@@#&&&&&&",
"@@@@@@@@@@@#..X------&&&&&&&&&&&%@@@@@@@@#&&&&&&"
};
